X:1
T:Title
%%score 1 { 2 | 3 }
L:1/8
Q:1/4=92
M:4/4
K:Ab
V:1 treble nm="Grand Piano, Soprano"
V:2 bass nm="Choir Pad, Each Step of the Way"
V:3 bass 
V:1
 [Ec]2 [DB]>[Ec] [DB] [CA]2 [EG] | [DF]2 [FA]>[DF] [CE]4 | [CE]2 [EA]>[EB] [Ec] [Ee]2 [Ec] | %3
w: By~A.~J.~Robertson * * * * *|||
 [FA]2 [FB]>[Ac] [GB]4 | [Ec]2 [DB]>[Ec] [DB] [CA]2 [EG] | [DF]2 [FA]>[DF] [CE]4 | %6
w: |||
 [CE]2 [EA]>[EB] [Ec] [Ae]2 [Bd] | [Ac]2 [GB]>[GB] A4 | [Fd]2 [Fd]>[Fd] [Fd] [Fd]3 | %9
w: |||
 [Ec]2 [Ec]>[Ec] [Ec]4 | [EB]2 [EB]>[Ec] [EB] [Ge]2 [EG] | [=DB][FA] [EG]>[DF] E4 | %12
w: |||
 [Ec]2 [DB]>[Ec] [DB] [CA]3 | [EA]2 [EB]>[_Gc] [Fd]4 | [Ec]2 [Ae]>[Af] [Ae] [Ac]2 A | %15
w: |||
 [GB]2 [Ac]>[EB] [EA]4- | [EA]4 z4 |] %17
w: ||
V:2
 A,2 G,>G, A, A,2 A, | A,2 A,>A, A,4 | A,2 A,>G, A,[K:treble] C2 C | C2 =D>D E4 | %4
 A,2 G,>G, A, A,2 A, | A,2 A,>A, A,4 | A,2 A,>G, A,[K:treble] C2 F | E2 D>D C4 | A,2 A,>A, A, A,3 | %9
 A,2 A,>A, A,4 | G,2 G,>A, G, B,2 B, | B,2 B,>A, G,4 | A,2 G,>G, A, A,3 | A,2 G,>A, A,4 | %14
 A,2[K:treble] C>D C E2 C | D2 E>D C4- | C4 z4 |] %17
V:3
 z2 E,>E, z2 z C, | D,2 D,>D, A,,4 | A,,2 C,>E, z A,2 A, | F,2 B,,>B,, E,4 | z2 E,>E, z2 z C, | %5
 D,2 D,>D, A,,4 | A,,2 C,>E, z A,2 D, | E,2 E,>E, A,,4 | D,2 D,>D, D, D,3 | A,,2 C,>E, z4 | %10
 E,2 E,>E, E, E,2 E, | B,,2 B,,>B,, E,4 | z2 E,>E, z4 | C,2 E,2 D,4 | z2 A,>A, A, A,2 A, | %15
 E,2 E,>E, A,,4- | A,,4 z4 |] %17

